!!!OTL: Graf und Nonne (Die Nonne)
!!!OTL-incipit:Wer zapfet uns ein Glaeschen ein,
!!!ARE: Europa, Mitteleuropa, Deutschland (), Brandenburg, Uckermark, Gramzow
!!!YOR: 8, S. 290
!!    1844 aufgezeichnet
!!!SCT: Q1155F.
!!!TXL: @@DE
!!!YEM: Copyright 1995, estate of Helmut Schaffrath.
**kern	**text
*ICvox	*
*M4/4	*
*met(c)	*
*k[f#]	*
*G:	*
{4d	Wer
=1	=1
4.g	zap-
8d	-fet
4B	uns
4d	ein
=2	=2
4.g	Gläs-
8f#	-chen
4g}	ein,
{4b	wir
=3	=3
4.a	ha-
8f#	-ben
(8aL	jetzt
8gJ)	.
4e	noch
=4	=4
2d	Geld.
4r}	.
{(8gL	Wir
8bJ)	.
=5	=5
4a	wol-
4g	-len
4a	tap-
4dd	-fer
=6	=6
(<4cc	trin-
8a/L	.
8ccJ)	.
4b}	-ken
{4a	weil
=7	=7
2g	uns
2f#	ge-
=8	=8
2g	-fällt.
4r}	.
==	==
!!!AGN: Trink - Lied
!! Melodievergleich zu Q0155I., anderes Lied.
!!!ONB: ESAC (Essen Associative Code) Database: BALLADE
!!!AMT: simple quadruple
!!!AIN: vox
!!!EED: Helmut Schaffrath
!!!EEV: 1.0
!!!RDF**kern: <= below
!!!source: Deutsche Volkslieder mit ihren Melodien. Herausgegeben vom Deutschen Volksliedarchiv. Achter Teil. Freiburg/Breisgau 1988.
!!!page: 290
!!!ENC: Anna Maria Matuszewska
!!!EEV: 2025/03/10
*-	*-
